packages/bezier-icons/icons/command.svg

<svg width="24" height="24" viewBox="0 0 24 24" fill="none" xmlns="http://www.w3.org/2000/svg">
<path d="M15.8 8.6C16.1314 8.15817 16.0418 7.53137 15.6 7.2C15.1582 6.86863 14.5314 6.95817 14.2 7.4L8.2 15.4C7.86863 15.8418 7.95817 16.4686 8.4 16.8C8.84183 17.1314 9.46863 17.0418 9.8 16.6L15.8 8.6Z" fill="#313234"/>
<path fill-rule="evenodd" clip-rule="evenodd" d="M3 8C3 5.23858 5.23858 3 8 3H16C18.7614 3 21 5.23858 21 8V16C21 18.7614 18.7614 21 16 21H8C5.23858 21 3 18.7614 3 16V8ZM8 5H16C17.6569 5 19 6.34315 19 8V16C19 17.6569 17.6569 19 16 19H8C6.34315 19 5 17.6569 5 16V8C5 6.34315 6.34315 5 8 5Z" fill="#313234"/>
</svg>

<svg xmlns="http://www.w3.org/2000/svg" width="24" height="24" fill="none" viewBox="0 0 24 24"><path fill="#313234" d="M15.8 8.6a1 1 0 1 0-1.6-1.2l-6 8a1 1 0 0 0 1.6 1.2z"/><path fill="#313234" fill-rule="evenodd" d="M3 8a5 5 0 0 1 5-5h8a5 5 0 0 1 5 5v8a5 5 0 0 1-5 5H8a5 5 0 0 1-5-5zm5-3h8a3 3 0 0 1 3 3v8a3 3 0 0 1-3 3H8a3 3 0 0 1-3-3V8a3 3 0 0 1 3-3" clip-rule="evenodd"/></svg>
